TTree/bits.svg

<svg xmlns="http://www.w3.org/2000/svg" viewBox="0 0 1200 800" preserveAspectRatio="none" width="1200" height="800">
 <path d="M0,0H1200V800H0Z" style="fill: white;"></path>
 <g>
  <g transform="translate(120,80)">
   <path d="M0,0H960V640H0Z" style="fill: white; stroke: black; stroke-width: 1;"></path>
   <svg x="0" y="0" overflow="hidden" width="960" height="640" viewBox="0 0 960 640">
    <g>
     <path d="M0,640h90v-610h60v610h90v-609h60v609h270v-607h60v607h90v-610h60v610h180" style="stroke-linejoin: miter; stroke: #00009a; stroke-width: 1; fill: none;"></path>
    </g>
   </svg>
   <g>
    <g transform="translate(0,640)">
     <path d="M0,0h960M0,-24v24m30,-24v24m30,-24v24m30,-24v24m30,-24v24m30,-24v24m30,-24v24m30,-24v24m30,-24v24m30,-24v24m30,-24v24m30,-24v24m30,-24v24m30,-24v24m30,-24v24m30,-24v24m30,-24v24m30,-24v24m30,-24v24m30,-24v24m30,-24v24m30,-24v24m30,-24v24m30,-24v24m30,-24v24m30,-24v24m30,-24v24m30,-24v24m30,-24v24m30,-24v24m30,-24v24m30,-24v24m30,-12v12" style="stroke: black; stroke-width: 1;"></path>
     <g font-family="Arial" font-size="23" space="preserve" fill="black" text-anchor="middle">
      <text dy=".8em" transform="translate(15,6)">
       0
      </text>
      <text dy=".8em" transform="translate(45,6)">
       1
      </text>
      <text dy=".8em" transform="translate(75,6)">
       2
      </text>
      <text dy=".8em" transform="translate(105,6)">
       3
      </text>
      <text dy=".8em" transform="translate(135,6)">
       4
      </text>
      <text dy=".8em" transform="translate(165,6)">
       5
      </text>
      <text dy=".8em" transform="translate(195,6)">
       6
      </text>
      <text dy=".8em" transform="translate(225,6)">
       7
      </text>
      <text dy=".8em" transform="translate(255,6)">
       8
      </text>
      <text dy=".8em" transform="translate(285,6)">
       9
      </text>
      <text dy=".8em" transform="translate(315,6)">
       10
      </text>
      <text dy=".8em" transform="translate(345,6)">
       11
      </text>
      <text dy=".8em" transform="translate(375,6)">
       12
      </text>
      <text dy=".8em" transform="translate(405,6)">
       13
      </text>
      <text dy=".8em" transform="translate(435,6)">
       14
      </text>
      <text dy=".8em" transform="translate(465,6)">
       15
      </text>
      <text dy=".8em" transform="translate(495,6)">
       16
      </text>
      <text dy=".8em" transform="translate(525,6)">
       17
      </text>
      <text dy=".8em" transform="translate(555,6)">
       18
      </text>
      <text dy=".8em" transform="translate(585,6)">
       19
      </text>
      <text dy=".8em" transform="translate(615,6)">
       20
      </text>
      <text dy=".8em" transform="translate(645,6)">
       21
      </text>
      <text dy=".8em" transform="translate(675,6)">
       22
      </text>
      <text dy=".8em" transform="translate(705,6)">
       23
      </text>
      <text dy=".8em" transform="translate(735,6)">
       24
      </text>
      <text dy=".8em" transform="translate(765,6)">
       25
      </text>
      <text dy=".8em" transform="translate(795,6)">
       26
      </text>
      <text dy=".8em" transform="translate(825,6)">
       27
      </text>
      <text dy=".8em" transform="translate(855,6)">
       28
      </text>
      <text dy=".8em" transform="translate(885,6)">
       29
      </text>
      <text dy=".8em" transform="translate(915,6)">
       30
      </text>
      <text dy=".8em" transform="translate(945,6)">
       31
      </text>
     </g>
     <g font-family="Arial" font-size="28" space="preserve" transform="translate(960,45)">
      <text fill="black" text-anchor="end" dy=".4em">
       event.fTracks.fBits
      </text>
     </g>
    </g>
    <g>
     <path d="M0,0v640M36,640h-36m18,-12h-18m18,-12h-18m18,-13h-18m18,-12h-18m36,-12h-36m18,-12h-18m18,-12h-18m18,-12h-18m18,-13h-18m36,-12h-36m18,-12h-18m18,-12h-18m18,-12h-18m18,-13h-18m36,-12h-36m18,-12h-18m18,-12h-18m18,-12h-18m18,-12h-18m36,-13h-36m18,-12h-18m18,-12h-18m18,-12h-18m18,-12h-18m36,-13h-36m18,-12h-18m18,-12h-18m18,-12h-18m18,-12h-18m36,-12h-36m18,-13h-18m18,-12h-18m18,-12h-18m18,-12h-18m36,-12h-36m18,-13h-18m18,-12h-18m18,-12h-18m18,-12h-18m36,-12h-36m18,-12h-18m18,-13h-18m18,-12h-18m18,-12h-18m36,-12h-36m18,-12h-18m18,-13h-18m18,-12h-18m18,-12h-18m36,-12h-36m18,-12h-18m18,-12h-18" style="stroke: black; stroke-width: 1;"></path>
     <g font-family="Arial" font-size="28" space="preserve">
      <text fill="black" text-anchor="end" dy=".4em" transform="translate(-4,640)">
       0
      </text>
      <text fill="black" text-anchor="end" dy=".4em" transform="translate(-4,579)">
       0.1
      </text>
      <text fill="black" text-anchor="end" dy=".4em" transform="translate(-4,518)">
       0.2
      </text>
      <text fill="black" text-anchor="end" dy=".4em" transform="translate(-4,457)">
       0.3
      </text>
      <text fill="black" text-anchor="end" dy=".4em" transform="translate(-4,396)">
       0.4
      </text>
      <text fill="black" text-anchor="end" dy=".4em" transform="translate(-4,335)">
       0.5
      </text>
      <text fill="black" text-anchor="end" dy=".4em" transform="translate(-4,275)">
       0.6
      </text>
      <text fill="black" text-anchor="end" dy=".4em" transform="translate(-4,214)">
       0.7
      </text>
      <text fill="black" text-anchor="end" dy=".4em" transform="translate(-4,153)">
       0.8
      </text>
      <text fill="black" text-anchor="end" dy=".4em" transform="translate(-4,92)">
       0.9
      </text>
      <text fill="black" text-anchor="end" dy=".4em" transform="translate(-4,31)">
       1
      </text>
      <g transform="translate(5,-10)">
       <text fill="black" font-size="28">
        ×10
       </text>
       <text fill="black" font-size="17" transform="translate(46,-14)">
        6
       </text>
      </g>
     </g>
    </g>
   </g>
  </g>
  <g transform="translate(120,4)" font-family="Arial" font-size="40" space="preserve">
   <text fill="black" text-anchor="middle" dy=".8em" transform="translate(480)">
    drawing 'event.fTracks.fBits' from T
   </text>
  </g>
  <g transform="translate(936,52)" font-family="Arial" font-size="17" space="preserve" fill="black">
   <path d="M0,0H240V128H0Z" style="fill: white; stroke: black; stroke-width: 1;"></path>
   <text text-anchor="middle" dy=".4em" transform="translate(120,11)">
    bits
   </text>
   <text text-anchor="start" dy=".4em" transform="translate(12,32)">
    Entries
   </text>
   <text text-anchor="end" dy=".4em" transform="translate(228,32)">
    7996334
   </text>
   <text text-anchor="start" dy=".4em" transform="translate(12,53)">
    Mean
   </text>
   <text text-anchor="end" dy=".4em" transform="translate(228,53)">
    14.50
   </text>
   <text text-anchor="start" dy=".4em" transform="translate(12,75)">
    Std Dev
   </text>
   <text text-anchor="end" dy=".4em" transform="translate(228,75)">
    8.399
   </text>
   <text text-anchor="start" dy=".4em" transform="translate(12,96)">
    Underflow
   </text>
   <text text-anchor="end" dy=".4em" transform="translate(228,96)">
    0
   </text>
   <text text-anchor="start" dy=".4em" transform="translate(12,117)">
    Overflow
   </text>
   <text text-anchor="end" dy=".4em" transform="translate(228,117)">
    0
   </text>
   <path d="M0,21h240" style="stroke: black; stroke-width: 1;"></path>
  </g>
 </g>
</svg>

<svg xmlns="http://www.w3.org/2000/svg" viewBox="0 0 1200 800" preserveAspectRatio="none" width="1200" height="800">
 <path d="M0,0H1200V800H0Z" style="fill: white;"></path>
 <g>
  <g transform="translate(120,80)">
   <path d="M0,0H960V640H0Z" style="fill: white; stroke: black; stroke-width: 1;"></path>
   <svg x="0" y="0" overflow="hidden" width="960" height="640" viewBox="0 0 960 640">
    <g>
     <path d="M0,640h90v-610h60v610h90v-609h60v609h270v-607h60v607h90v-610h60v610h180" style="stroke-linejoin: miter; stroke: #00009a; stroke-width: 1; fill: none;"></path>
    </g>
   </svg>
   <g>
    <g transform="translate(0,640)">
     <path d="M0,0h960M0,-24V0M30,-24V0M60,-24V0M90,-24V0M120,-24V0M150,-24V0M180,-24V0M210,-24V0M240,-24V0M270,-24V0M300,-24V0M330,-24V0M360,-24V0M390,-24V0M420,-24V0M450,-24V0M480,-24V0M510,-24V0M540,-24V0M570,-24V0M600,-24V0M630,-24V0M660,-24V0M690,-24V0M720,-24V0M750,-24V0M780,-24V0M810,-24V0M840,-24V0M870,-24V0M900,-24V0M930,-24V0M960,-12V0" style="stroke: black; stroke-width: 1;"></path>
     <g font-family="Arial" font-size="23" space="preserve" fill="black" text-anchor="middle">
      <text dy=".8em" transform="translate(15,6)">
       0
      </text>
      <text dy=".8em" transform="translate(45,6)">
       1
      </text>
      <text dy=".8em" transform="translate(75,6)">
       2
      </text>
      <text dy=".8em" transform="translate(105,6)">
       3
      </text>
      <text dy=".8em" transform="translate(135,6)">
       4
      </text>
      <text dy=".8em" transform="translate(165,6)">
       5
      </text>
      <text dy=".8em" transform="translate(195,6)">
       6
      </text>
      <text dy=".8em" transform="translate(225,6)">
       7
      </text>
      <text dy=".8em" transform="translate(255,6)">
       8
      </text>
      <text dy=".8em" transform="translate(285,6)">
       9
      </text>
      <text dy=".8em" transform="translate(315,6)">
       10
      </text>
      <text dy=".8em" transform="translate(345,6)">
       11
      </text>
      <text dy=".8em" transform="translate(375,6)">
       12
      </text>
      <text dy=".8em" transform="translate(405,6)">
       13
      </text>
      <text dy=".8em" transform="translate(435,6)">
       14
      </text>
      <text dy=".8em" transform="translate(465,6)">
       15
      </text>
      <text dy=".8em" transform="translate(495,6)">
       16
      </text>
      <text dy=".8em" transform="translate(525,6)">
       17
      </text>
      <text dy=".8em" transform="translate(555,6)">
       18
      </text>
      <text dy=".8em" transform="translate(585,6)">
       19
      </text>
      <text dy=".8em" transform="translate(615,6)">
       20
      </text>
      <text dy=".8em" transform="translate(645,6)">
       21
      </text>
      <text dy=".8em" transform="translate(675,6)">
       22
      </text>
      <text dy=".8em" transform="translate(705,6)">
       23
      </text>
      <text dy=".8em" transform="translate(735,6)">
       24
      </text>
      <text dy=".8em" transform="translate(765,6)">
       25
      </text>
      <text dy=".8em" transform="translate(795,6)">
       26
      </text>
      <text dy=".8em" transform="translate(825,6)">
       27
      </text>
      <text dy=".8em" transform="translate(855,6)">
       28
      </text>
      <text dy=".8em" transform="translate(885,6)">
       29
      </text>
      <text dy=".8em" transform="translate(915,6)">
       30
      </text>
      <text dy=".8em" transform="translate(945,6)">
       31
      </text>
     </g>
     <g font-family="Arial" font-size="28" space="preserve" transform="translate(960,45)">
      <text fill="black" text-anchor="end" dy=".4em">
       event.fTracks.fBits
      </text>
     </g>
    </g>
    <g>
     <path d="M0,0v640M36,640H0M18,628H0M18,616H0M18,603H0M18,591H0M36,579H0M18,567H0M18,555H0M18,543H0M18,530H0M36,518H0M18,506H0M18,494H0M18,482H0M18,469H0M36,457H0M18,445H0M18,433H0M18,421H0M18,409H0M36,396H0M18,384H0M18,372H0M18,360H0M18,348H0M36,335H0M18,323H0M18,311H0M18,299H0M18,287H0M36,275H0M18,262H0M18,250H0M18,238H0M18,226H0M36,214H0M18,201H0M18,189H0M18,177H0M18,165H0M36,153H0M18,141H0M18,128H0M18,116H0M18,104H0M36,92H0M18,80H0M18,67H0M18,55H0M18,43H0M36,31H0M18,19H0M18,7H0" style="stroke: black; stroke-width: 1;"></path>
     <g font-family="Arial" font-size="28" space="preserve">
      <text fill="black" text-anchor="end" dy=".4em" transform="translate(-4,640)">
       0
      </text>
      <text fill="black" text-anchor="end" dy=".4em" transform="translate(-4,579)">
       0.1
      </text>
      <text fill="black" text-anchor="end" dy=".4em" transform="translate(-4,518)">
       0.2
      </text>
      <text fill="black" text-anchor="end" dy=".4em" transform="translate(-4,457)">
       0.3
      </text>
      <text fill="black" text-anchor="end" dy=".4em" transform="translate(-4,396)">
       0.4
      </text>
      <text fill="black" text-anchor="end" dy=".4em" transform="translate(-4,335)">
       0.5
      </text>
      <text fill="black" text-anchor="end" dy=".4em" transform="translate(-4,275)">
       0.6
      </text>
      <text fill="black" text-anchor="end" dy=".4em" transform="translate(-4,214)">
       0.7
      </text>
      <text fill="black" text-anchor="end" dy=".4em" transform="translate(-4,153)">
       0.8
      </text>
      <text fill="black" text-anchor="end" dy=".4em" transform="translate(-4,92)">
       0.9
      </text>
      <text fill="black" text-anchor="end" dy=".4em" transform="translate(-4,31)">
       1
      </text>
      <g transform="translate(5,-10)">
       <text fill="black" font-size="28">
        ×10
       </text>
       <text fill="black" font-size="17" transform="translate(46,-14)">
        6
       </text>
      </g>
     </g>
    </g>
   </g>
  </g>
  <g transform="translate(120,4)" font-family="Arial" font-size="40" space="preserve">
   <text fill="black" text-anchor="middle" dy=".8em" transform="translate(480)">
    drawing 'event.fTracks.fBits' from T
   </text>
  </g>
  <g transform="translate(936,52)" font-family="Arial" font-size="17" space="preserve" fill="black">
   <path d="M0,0H240V128H0Z" style="fill: white; stroke: black; stroke-width: 1;"></path>
   <text text-anchor="middle" dy=".4em" transform="translate(120,11)">
    bits
   </text>
   <text text-anchor="start" dy=".4em" transform="translate(12,32)">
    Entries
   </text>
   <text text-anchor="end" dy=".4em" transform="translate(228,32)">
    7996334
   </text>
   <text text-anchor="start" dy=".4em" transform="translate(12,53)">
    Mean
   </text>
   <text text-anchor="end" dy=".4em" transform="translate(228,53)">
    14.50
   </text>
   <text text-anchor="start" dy=".4em" transform="translate(12,75)">
    Std Dev
   </text>
   <text text-anchor="end" dy=".4em" transform="translate(228,75)">
    8.399
   </text>
   <text text-anchor="start" dy=".4em" transform="translate(12,96)">
    Underflow
   </text>
   <text text-anchor="end" dy=".4em" transform="translate(228,96)">
    0
   </text>
   <text text-anchor="start" dy=".4em" transform="translate(12,117)">
    Overflow
   </text>
   <text text-anchor="end" dy=".4em" transform="translate(228,117)">
    0
   </text>
   <path d="M0,21h240" style="stroke: black; stroke-width: 1;"></path>
  </g>
 </g>
</svg>
